X: 1
T: An Irishman's Heart to the Ladies
R: jig
M: 6/8
L: 1/8
K: A
a \
| "A"ecA "D"BAF | "A"AFE EFA | "E7"Bdc BAB | "E7"cBB B2a|
"A"ecA "D"BAF | "A"AFE EFA | "E7"Bdc BAB | "A"cAA A2 :|
|:B | "A"cee "D"dff | "A"cee ecA | cde eaf | "A"ecA "E7"B2A|
"A"cee "D"dff | "A"cee ecA | "E7"Bdc BAB | "A"cAA A2 :|
